P2
# D60 flight-4 global costmap, /home/jsperson/bag_20260820_161932
# resolution 0.05000000074505806 m, origin (-1.96986851168831, -2.55578075219421)
# values are nav2 costmap costs: 0 free, 253 inscribed, 254 lethal, 255 unknown
# OPEN frame, artifact t+220.3 s
75 75
255
255 255 255 255 255 255 255 253 253 253 253 253 253 253 253 253 253 253 253 253 253 253 253 253 253 253 253 253 253 253 253 253 253 253 253 245 253 253 253 253 253 253 253 253 254 253 253 253 253 253 245 202 166 0 0 0 0 255 255 0 0 0 255 255 255 255 255 255 255 255 255 255 255 255 255
255 255 255 255 255 255 253 253 253 253 253 253 253 253 253 253 253 253 253 253 254 253 254 253 253 253 253 253 253 254 254 254 254 253 253 253 253 253 254 254 254 254 254 254 254 254 254 254 253 253 253 207 170 139 0 0 0 255 255 0 0 0 255 255 255 255 255 255 255 255 255 255 255 255 255
255 255 255 255 255 255 253 253 253 254 254 254 254 254 254 254 254 254 254 254 254 254 253 254 254 254 254 254 254 254 254 254 254 253 253 253 253 253 254 253 253 253 253 253 253 253 253 253 253 253 245 202 166 157 144 0 0 255 0 0 0 255 255 255 255 255 255 255 255 255 255 255 255 255 255
255 255 255 255 255 253 253 253 254 254 254 254 254 254 254 253 254 254 253 253 253 253 253 254 254 254 254 254 253 253 254 253 253 253 253 245 253 253 253 253 253 253 253 253 253 253 253 253 253 253 245 224 202 189 170 157 255 255 0 0 0 255 0 0 0 139 0 0 255 255 255 255 255 255 255
255 255 255 255 255 255 253 253 253 254 253 254 253 253 253 253 253 253 253 253 253 253 254 253 254 253 253 253 253 253 253 253 253 253 253 224 253 253 253 253 253 253 253 253 253 253 253 253 253 253 253 253 245 224 202 189 255 149 0 0 0 255 144 157 166 170 166 157 144 255 255 255 255 255 255
255 255 255 255 255 255 253 253 253 253 253 253 253 253 253 253 253 253 253 253 253 253 253 253 254 253 253 253 253 253 253 253 253 245 224 198 224 245 253 253 253 245 224 253 253 253 254 253 253 253 253 253 253 253 245 224 255 170 157 144 255 149 170 189 202 207 202 189 170 255 255 255 255 255 255
255 255 255 255 255 255 255 253 253 253 253 253 253 253 253 245 253 253 245 224 253 253 253 254 254 254 253 253 254 254 253 253 253 207 189 224 253 253 253 253 253 253 253 253 253 253 254 254 254 254 253 253 253 253 253 253 255 202 189 170 255 170 198 224 245 253 245 224 198 255 255 255 255 255 255
255 255 255 255 255 255 255 255 255 253 255 253 245 253 253 245 224 207 202 207 253 253 253 254 254 254 254 254 254 253 253 253 245 202 202 245 253 253 253 253 253 253 253 245 253 253 253 254 254 254 254 254 253 253 253 253 253 245 224 198 170 189 224 253 253 253 253 253 255 255 255 255 255 255 255
255 255 255 255 255 255 255 255 255 255 255 253 253 253 253 253 253 224 189 202 245 253 253 253 253 253 253 253 253 253 253 253 224 189 224 253 253 253 254 254 254 253 253 253 253 253 253 253 253 253 253 253 254 254 253 253 253 253 253 255 189 202 245 253 253 253 253 253 253 255 255 255 255 255 255
255 255 255 255 255 255 255 255 255 255 253 253 253 253 253 253 253 245 207 224 245 253 253 253 253 253 253 253 253 253 253 224 198 202 245 253 253 253 253 253 253 253 253 245 224 253 253 253 253 253 253 253 253 253 253 253 253 253 253 255 202 207 253 253 253 254 253 253 253 253 253 255 255 255 255
255 255 255 255 255 255 255 255 253 253 253 253 253 254 254 253 253 253 253 253 253 253 253 253 253 253 253 253 253 245 224 198 170 207 253 253 253 254 254 253 253 253 253 245 253 253 253 253 253 253 253 253 253 253 254 254 254 253 253 253 207 207 253 253 253 254 254 253 253 253 253 253 255 255 255
255 255 255 255 255 255 255 253 253 253 253 253 254 254 254 253 253 253 253 253 253 253 253 253 253 245 207 207 207 202 189 170 189 202 245 253 253 253 253 253 253 245 253 253 253 253 253 253 253 253 253 254 253 253 253 253 253 253 253 245 202 202 245 253 253 253 254 254 254 253 253 253 255 255 166
255 255 255 253 253 253 253 253 253 253 254 254 254 254 253 253 253 253 253 253 253 254 254 253 253 253 207 170 170 170 170 198 224 245 253 253 253 253 253 253 253 245 253 253 253 253 253 253 253 253 253 254 253 253 253 253 253 253 253 224 189 189 224 253 253 253 253 253 254 254 253 253 253 207 170
255 253 253 253 253 253 253 253 253 254 254 254 254 254 253 253 254 254 254 254 253 254 254 253 253 253 207 189 202 207 207 224 253 253 253 253 253 253 253 245 224 253 253 253 254 254 254 253 253 253 253 253 253 254 253 253 253 253 253 245 224 198 198 224 253 253 253 253 253 254 253 253 253 207 255
255 253 253 253 253 253 253 253 253 253 254 254 254 253 253 253 254 254 253 253 254 254 253 253 253 253 245 224 245 253 253 245 253 253 253 253 253 253 245 202 202 245 253 253 253 253 253 254 253 253 253 254 253 253 253 253 253 253 253 253 253 224 189 224 253 253 253 253 253 253 253 253 245 202 255
253 253 253 254 254 254 254 254 254 254 254 254 253 253 253 253 254 253 253 254 254 253 253 253 253 253 253 253 253 253 253 253 253 253 254 254 253 253 253 207 189 224 253 253 253 253 253 254 253 253 253 254 253 253 253 253 253 253 253 253 253 245 202 245 253 253 253 253 253 253 253 253 224 255 255
253 253 253 254 254 254 254 254 254 254 254 254 253 253 253 254 253 253 253 253 253 253 253 253 253 253 253 253 253 253 253 253 253 253 253 254 253 253 253 224 198 198 224 245 253 253 253 253 253 253 253 254 253 253 253 253 253 254 254 253 253 253 207 253 253 253 254 253 253 253 245 224 255 255 255
253 253 253 254 253 253 253 253 253 253 253 253 253 253 253 253 253 253 253 253 253 253 253 253 254 254 253 253 253 254 254 253 253 253 253 253 253 253 253 253 224 189 202 207 224 253 253 253 253 253 253 254 253 253 253 253 253 253 254 253 253 253 207 245 253 253 253 253 253 255 202 255 255 255 255
253 254 254 254 253 253 253 253 253 253 253 253 253 253 253 253 253 253 253 253 253 254 253 254 254 253 253 253 254 254 253 253 253 253 253 253 253 253 253 253 245 224 245 253 253 245 245 253 253 253 253 254 253 253 253 253 253 253 253 253 253 245 202 224 253 253 253 253 253 224 189 255 255 255 0
254 254 254 254 253 253 253 253 253 253 253 253 253 253 253 253 253 253 253 253 254 254 253 253 253 253 253 253 253 253 253 253 253 253 253 253 253 254 253 253 253 253 253 253 253 253 253 253 253 253 253 253 253 253 245 224 253 253 253 253 253 224 189 198 224 245 253 255 224 198 255 255 255 0 0
254 253 253 254 253 253 253 207 207 207 245 253 253 253 253 254 253 253 254 254 253 253 253 253 254 254 254 253 253 253 253 253 253 253 245 253 253 253 253 253 245 253 253 253 253 253 253 253 253 253 253 254 253 253 253 255 224 245 253 245 224 198 170 170 189 202 255 255 189 255 255 255 0 0 0
254 254 253 254 253 253 253 224 245 253 253 253 253 254 254 254 253 254 254 253 253 253 253 253 254 254 253 253 253 253 253 254 253 253 253 253 253 253 253 253 253 253 253 254 254 253 253 253 254 254 253 254 253 253 253 207 189 202 207 202 189 170 149 144 157 255 255 166 255 255 255 0 0 0 0
254 254 253 253 253 253 245 253 253 253 253 253 253 254 254 253 253 254 254 253 253 253 253 253 253 253 253 253 253 253 253 253 253 253 253 253 253 253 253 253 253 253 253 254 254 253 253 253 253 254 254 254 253 253 253 207 170 166 170 166 157 144 0 0 0 255 139 0 255 255 255 0 0 0 0
253 253 253 253 253 253 253 253 253 253 253 253 253 254 254 253 253 254 253 253 253 245 253 253 253 253 253 253 245 253 253 253 253 253 253 253 253 254 253 253 253 253 253 253 253 253 253 253 253 253 253 254 253 253 253 224 198 170 144 0 0 0 0 0 255 0 0 255 255 255 0 0 0 0 0
253 253 253 253 245 253 253 253 253 254 253 253 253 254 254 253 253 253 253 253 253 224 253 253 253 254 253 253 253 224 245 253 245 253 253 253 254 254 254 253 253 253 253 253 253 253 253 253 253 253 253 254 253 253 253 253 224 189 157 0 0 0 0 255 255 0 255 255 255 0 0 0 0 0 0
253 253 255 253 253 253 253 253 254 254 253 253 253 254 253 253 253 253 253 253 224 207 253 253 253 254 253 253 253 207 202 207 202 245 253 253 253 253 253 253 253 253 253 253 253 253 253 253 253 253 253 254 253 253 253 253 245 202 170 144 0 0 0 255 0 255 255 255 0 0 0 0 0 0 0
255 255 253 253 253 253 253 253 254 254 253 253 254 254 253 253 253 253 245 224 198 202 245 253 253 253 253 253 245 202 166 170 189 224 253 253 253 253 253 253 253 253 253 253 253 253 253 253 253 253 253 254 254 254 253 253 253 224 189 170 166 157 255 0 0 255 255 0 0 0 0 0 0 0 255
255 255 253 253 253 254 253 253 254 254 253 253 254 254 253 253 253 207 202 189 170 189 224 253 253 253 253 253 224 189 157 144 170 198 224 245 253 253 253 254 254 254 254 254 254 253 253 253 253 254 254 254 254 254 253 253 253 245 202 207 202 255 170 157 255 255 0 0 0 0 0 0 0 255 255
255 253 253 253 254 254 254 254 254 254 253 254 254 253 253 253 245 202 166 157 144 170 198 224 245 253 245 224 198 170 144 0 149 170 207 253 253 253 254 254 254 254 254 254 254 253 253 253 253 253 253 254 254 254 254 253 253 253 245 253 245 255 202 255 255 149 0 0 0 0 0 0 255 255 255
253 253 253 253 254 254 253 254 254 254 254 254 253 253 253 253 224 189 157 0 0 149 170 189 202 207 202 189 170 149 0 0 0 166 202 245 253 253 253 253 253 254 253 253 253 253 253 253 253 253 253 254 254 254 253 253 253 253 253 253 253 253 255 255 255 170 144 0 0 0 0 255 255 255 255
253 253 253 253 254 254 253 253 253 254 254 254 253 253 253 224 198 170 144 0 0 0 144 157 166 170 166 157 144 0 0 0 0 157 189 224 253 253 253 253 253 253 253 253 253 253 253 224 253 253 253 254 254 254 253 253 253 253 253 253 253 253 253 253 224 189 157 0 0 0 255 255 255 255 255
253 253 254 253 254 254 253 253 253 253 254 254 253 253 253 207 170 149 0 0 0 0 0 0 0 139 0 0 0 0 0 0 0 144 170 198 224 245 253 253 253 253 253 253 253 245 224 207 253 253 253 254 254 254 253 253 253 253 253 254 253 253 253 253 245 202 166 0 0 255 255 255 255 255 255
253 253 253 253 253 253 253 253 254 254 254 253 253 253 245 202 166 0 0 0 0 0 0 0 0 0 0 0 0 0 0 0 0 0 149 170 189 202 207 224 245 253 245 224 207 202 189 202 245 253 253 253 254 254 253 253 253 253 253 253 254 254 253 253 253 207 170 139 255 255 255 255 255 255 255
253 253 253 253 253 253 253 253 254 254 253 253 253 253 224 189 157 0 0 0 0 0 0 0 0 0 0 0 0 0 0 0 0 0 0 144 157 166 170 189 202 207 202 189 170 166 157 189 224 253 253 253 254 254 253 253 253 253 253 253 253 253 253 253 245 202 255 255 255 255 255 255 255 255 255
255 255 253 253 253 253 253 254 254 254 253 253 253 224 198 170 144 0 0 0 0 0 0 0 0 0 0 0 0 0 0 0 0 0 0 0 0 0 144 157 166 170 166 157 144 0 139 170 207 253 253 253 254 254 253 253 253 253 253 254 254 253 253 253 224 255 255 255 255 255 255 255 255 255 255
255 255 253 253 253 253 253 254 254 253 253 253 245 202 170 149 0 0 0 0 0 0 0 0 0 0 0 0 0 0 0 0 0 0 0 0 0 0 0 0 0 139 0 0 0 0 139 170 207 253 253 253 254 254 253 253 253 253 253 254 253 253 253 245 255 255 255 255 255 255 255 253 255 255 255
255 253 253 253 254 254 254 254 254 253 253 253 224 189 157 0 0 0 0 0 0 0 0 0 0 0 0 0 0 0 0 0 0 0 0 0 0 0 0 0 0 0 0 0 0 0 139 170 207 253 253 253 254 254 253 253 253 253 253 254 254 253 253 253 255 253 253 253 255 253 253 253 253 253 255
255 253 253 253 254 254 254 254 254 253 253 253 207 170 144 0 0 139 139 0 0 0 0 0 0 0 0 0 0 0 0 0 0 0 0 0 0 0 0 0 0 0 0 0 0 0 139 170 207 253 253 253 254 254 253 253 253 253 253 254 254 253 253 253 253 253 253 253 253 253 253 253 253 253 253
255 253 253 253 254 254 253 253 253 253 253 245 202 166 144 157 166 170 170 166 157 144 0 0 0 0 0 0 0 0 0 0 0 0 0 0 0 0 0 0 0 0 0 0 0 0 139 170 207 253 253 253 254 254 253 253 253 253 254 254 253 253 253 253 253 253 253 253 253 253 253 254 253 253 253
255 253 253 253 254 254 254 253 253 253 253 224 189 157 170 189 202 207 207 202 189 170 149 0 0 0 0 0 139 0 0 0 0 0 0 0 0 0 0 0 0 0 0 0 0 0 139 170 207 253 253 253 254 254 253 253 253 253 254 254 253 253 253 254 253 254 254 254 253 253 253 254 254 254 253
253 253 253 254 253 254 254 253 253 253 224 198 170 170 198 224 245 253 253 245 224 198 170 144 0 144 157 166 170 166 157 144 0 0 0 0 0 0 0 0 0 0 0 0 0 0 139 170 207 253 253 253 254 253 253 254 254 254 254 254 254 254 254 254 254 254 254 254 254 254 254 254 253 254 253
255 253 253 253 254 254 254 253 253 253 207 170 157 189 224 253 253 253 253 253 253 224 189 157 157 170 189 202 207 202 189 170 149 0 0 0 0 0 0 0 0 0 0 0 0 0 139 170 207 253 253 253 254 254 254 254 254 254 254 254 254 254 254 254 254 254 253 253 253 253 253 253 253 254 254
255 253 253 253 254 254 254 253 253 253 207 170 166 202 245 253 253 253 253 253 253 245 202 170 189 202 224 245 253 245 224 198 170 144 0 0 0 0 0 0 0 0 0 0 0 0 0 166 202 245 253 253 253 253 253 253 253 254 254 253 253 253 254 254 253 253 253 253 253 253 253 253 253 254 254
255 253 253 253 254 254 254 253 253 253 207 170 170 207 253 253 253 254 254 253 253 253 207 207 224 245 253 253 253 253 253 224 189 157 0 0 0 0 0 0 0 0 0 0 0 0 0 157 189 224 253 253 253 253 253 253 254 254 253 253 253 253 254 254 253 253 253 253 253 253 253 253 253 254 254
255 253 253 253 254 254 253 253 253 245 202 166 170 207 253 253 253 254 253 253 253 253 245 253 253 253 253 253 253 253 253 245 202 166 0 0 0 0 0 0 0 0 0 0 0 0 0 144 170 198 224 245 253 253 253 253 254 254 254 253 253 254 254 253 253 253 253 253 253 253 253 253 253 254 254
255 253 253 253 254 254 253 253 253 224 189 157 170 207 253 253 253 254 253 253 253 253 253 253 253 253 253 253 254 253 253 253 207 170 139 0 0 0 0 0 0 0 0 0 0 144 157 170 189 202 207 202 207 245 253 253 253 253 254 254 254 254 254 253 253 253 253 253 253 253 253 253 253 254 254
255 253 253 253 254 254 253 253 253 207 170 149 170 202 245 253 253 253 253 253 253 253 253 253 253 253 254 254 254 253 253 253 207 170 139 0 0 0 0 0 0 0 0 0 149 170 189 202 224 245 253 245 224 224 253 253 253 253 253 253 253 254 254 254 254 254 253 253 253 253 253 253 253 254 254
255 253 253 253 254 254 253 253 253 207 170 170 198 224 245 253 253 253 253 253 253 254 253 254 253 253 253 253 254 253 253 253 207 170 139 0 0 0 0 0 0 0 0 149 170 198 224 245 253 253 253 253 253 224 224 245 253 253 253 253 253 253 253 253 254 254 254 254 254 254 253 253 253 254 254
255 253 253 253 254 254 253 253 253 207 170 189 224 253 253 253 253 253 253 253 253 253 253 253 253 253 253 254 254 253 253 253 207 170 139 0 0 0 0 0 0 0 144 170 198 224 253 253 253 253 253 253 253 253 224 202 224 245 253 253 253 253 253 253 253 253 253 254 254 254 254 254 254 254 254
255 253 253 253 254 254 253 253 253 207 170 202 245 253 253 253 253 253 253 253 253 253 253 253 253 253 253 254 254 253 253 253 207 170 139 0 0 0 0 0 0 0 157 189 224 253 253 253 253 253 254 253 253 253 253 224 198 202 207 224 245 253 253 253 253 253 253 253 253 253 253 254 254 254 254
255 253 253 253 254 254 253 253 253 207 170 207 253 253 253 254 254 253 253 253 253 253 253 253 253 254 254 254 253 253 253 245 202 166 0 0 139 0 139 139 0 0 166 202 245 253 253 253 254 253 253 254 253 253 253 253 224 189 170 189 202 207 224 245 253 253 253 253 253 253 253 253 253 254 254
255 253 253 253 254 254 253 253 253 207 170 202 245 253 253 253 254 254 253 253 253 253 253 253 253 254 254 254 253 253 253 224 189 157 157 166 170 166 170 170 166 157 170 207 253 253 253 254 253 254 254 254 254 253 253 253 245 202 166 157 166 170 189 202 207 224 245 253 253 253 253 253 253 254 254
255 253 253 253 254 254 253 253 253 207 170 189 224 253 253 253 253 254 254 253 253 253 253 253 253 254 254 253 253 253 245 202 170 170 189 202 207 202 207 207 202 189 170 207 253 253 253 254 254 253 254 254 253 254 253 253 253 207 170 139 0 144 157 166 170 189 202 207 207 224 253 253 253 254 254
255 253 253 253 254 254 253 253 253 207 170 202 245 253 253 253 254 253 253 253 253 253 254 253 253 254 254 254 253 253 253 207 170 198 224 245 253 245 253 253 245 224 198 202 245 253 253 253 253 254 253 254 253 253 253 253 245 202 166 0 0 0 0 0 144 157 166 170 170 207 253 253 253 254 254
255 255 253 253 253 253 253 253 255 255 255 255 253 253 253 254 254 253 253 253 253 253 253 253 254 254 254 254 253 253 253 224 198 224 253 253 253 253 253 253 253 253 224 207 253 253 253 254 253 253 254 253 254 253 253 253 224 189 157 0 0 0 0 0 0 0 0 139 166 202 245 253 253 253 254
255 255 253 253 253 253 253 253 255 255 255 255 253 253 253 254 254 253 253 253 253 253 253 253 253 253 253 254 253 253 253 245 224 253 253 253 253 253 253 253 253 253 253 224 245 253 253 253 254 253 254 254 253 253 253 245 202 170 144 0 0 0 0 0 0 0 0 0 157 189 224 253 253 253 254
255 255 255 255 253 253 255 255 255 255 255 255 253 253 253 254 253 253 253 253 253 254 253 253 253 253 253 254 254 253 253 253 245 253 253 253 254 253 254 254 253 253 253 245 224 253 253 253 254 253 254 254 253 253 253 224 198 170 144 0 0 0 0 0 0 0 0 0 166 202 245 253 253 253 254
255 255 255 255 255 255 255 255 255 255 255 255 255 253 253 253 253 253 253 253 254 254 253 253 253 253 254 254 254 253 253 253 253 253 253 254 253 254 254 253 254 253 253 253 245 253 253 253 253 253 253 253 253 253 253 253 224 189 157 0 0 0 0 0 0 0 0 139 170 207 253 253 253 254 254
255 255 255 255 255 255 255 255 255 255 255 255 255 253 253 253 253 253 253 253 253 254 253 253 253 254 253 254 254 253 253 253 245 253 253 253 254 253 253 254 253 253 253 245 253 253 253 254 254 254 254 254 254 253 253 253 245 202 166 0 0 0 0 0 0 0 0 144 170 207 253 253 253 254 254
255 255 255 255 255 255 255 255 255 255 255 255 255 255 253 253 253 253 253 253 253 253 253 253 253 254 253 254 254 253 253 253 253 253 253 254 254 253 254 254 254 253 253 253 253 253 253 254 254 253 254 254 253 254 253 253 253 207 170 139 0 0 0 0 0 0 0 157 189 224 253 253 253 254 254
255 255 255 255 255 255 255 255 255 255 255 255 255 253 253 253 254 253 253 253 253 253 253 253 253 253 253 254 253 253 253 245 253 253 253 254 253 254 254 253 254 253 253 253 253 253 253 254 254 254 254 254 254 253 253 253 245 202 166 0 0 0 0 0 0 0 0 166 202 245 253 253 253 254 254
255 255 255 255 255 255 255 255 255 255 255 255 255 253 253 253 254 253 253 253 253 253 253 253 253 253 253 254 253 253 253 224 245 253 253 253 254 253 253 254 253 253 253 245 245 253 253 253 253 253 253 253 253 253 253 253 224 189 157 0 0 0 0 0 0 0 144 170 207 253 253 253 254 254 254
255 255 255 255 255 255 255 255 255 255 255 255 255 253 253 253 254 254 254 254 253 253 253 253 253 253 254 254 253 253 253 224 224 253 253 253 253 253 254 253 253 253 253 224 253 253 253 253 254 253 254 254 253 253 253 224 198 170 144 0 0 0 0 0 0 0 157 189 224 253 253 253 254 254 254
255 255 255 255 255 255 255 255 255 255 255 255 255 255 253 253 253 253 254 254 254 254 254 253 253 253 254 254 253 253 253 253 245 224 253 253 253 253 253 253 253 253 224 245 253 253 253 253 253 253 254 254 253 253 253 207 170 149 0 0 0 0 0 0 0 0 166 202 245 253 253 253 254 254 254
255 255 255 255 255 255 255 255 255 255 255 255 255 255 253 253 253 253 253 253 253 254 254 254 254 254 253 253 253 253 253 253 253 253 253 245 253 253 253 253 253 224 207 253 253 253 254 254 253 253 254 254 253 253 253 207 170 139 139 139 139 139 139 139 139 139 170 207 253 253 253 254 254 253 254
255 255 255 255 255 255 255 255 255 255 255 255 255 255 255 255 253 253 253 253 253 253 253 253 254 254 254 254 254 254 253 253 253 253 253 253 253 253 253 245 224 202 202 245 253 253 253 253 253 253 253 253 253 253 245 202 166 166 170 170 170 170 170 170 170 170 189 224 253 253 253 254 253 253 254
255 255 255 255 255 255 255 255 255 255 255 255 255 255 255 255 253 253 253 254 253 253 253 253 254 254 254 254 254 254 254 254 253 253 253 253 253 253 253 253 253 245 224 224 253 253 253 253 253 253 253 253 253 253 224 189 189 202 207 207 207 207 207 207 207 207 207 245 253 253 253 254 253 253 254
255 255 255 255 255 255 255 255 255 255 255 255 255 255 255 253 253 253 254 254 253 253 253 254 254 254 254 254 253 254 254 254 254 254 254 253 253 253 253 253 253 253 253 245 224 245 253 253 245 245 253 253 245 224 207 207 224 245 253 253 253 253 253 253 253 253 253 253 253 253 254 254 253 253 254
255 255 255 255 255 255 255 255 255 255 255 255 255 255 255 253 253 253 254 254 253 253 253 253 254 254 253 254 253 253 253 253 254 254 254 254 254 254 253 253 253 253 253 253 253 253 253 253 253 253 253 253 253 253 253 253 253 253 253 253 253 253 253 253 253 253 253 253 253 253 254 253 253 253 254
255 255 255 255 255 255 255 255 255 255 255 255 255 255 255 253 253 253 254 254 254 254 254 254 254 254 253 253 253 253 253 253 253 253 253 254 254 254 254 254 254 253 253 253 253 253 253 253 253 253 253 253 253 253 253 253 253 253 253 253 253 253 253 253 253 253 253 253 253 254 254 253 253 253 254
255 255 255 255 255 255 255 255 255 255 255 255 255 255 255 255 253 253 253 254 253 254 253 253 254 254 253 253 253 253 253 253 253 253 253 253 253 253 254 254 254 254 254 253 253 253 253 253 253 253 253 253 253 253 253 253 253 253 254 254 254 254 254 254 254 254 254 254 254 254 254 254 254 254 254
255 255 255 255 255 255 255 255 255 255 255 255 255 255 255 255 253 253 253 253 253 253 253 253 254 253 253 253 253 253 253 253 253 253 253 253 253 253 253 253 254 254 254 254 254 254 254 254 254 254 254 254 254 254 254 254 254 254 254 254 254 254 254 254 254 254 254 254 254 254 254 254 254 254 254
255 255 255 255 255 255 255 255 255 255 255 255 255 255 255 255 255 253 253 253 253 253 254 254 253 254 254 254 254 254 254 254 254 254 254 254 254 254 254 254 254 254 254 254 254 254 254 254 254 254 254 254 254 254 254 254 254 254 254 254 254 254 254 254 254 254 254 254 254 254 254 254 254 254 253
255 255 255 255 255 255 255 255 255 255 255 255 255 255 255 255 255 255 255 253 253 253 254 254 254 254 254 254 254 254 254 254 254 254 254 254 254 254 254 253 253 253 254 254 253 253 254 254 253 254 254 254 253 253 253 253 253 253 253 253 253 253 253 253 253 253 253 253 254 254 253 253 253 253 253
255 255 255 255 255 255 255 255 255 255 255 255 255 255 255 255 255 255 255 255 253 253 253 253 254 254 254 254 254 254 254 254 254 254 253 253 253 253 253 253 253 253 253 253 253 254 254 253 253 253 254 254 254 254 254 253 253 253 253 253 253 253 253 253 253 253 253 253 254 254 253 253 253 253 253
