P3
# annotated semantic map: red crosses mark semantic shoe tracks
8 8
255
0 0 0 0 0 0 0 0 0 0 0 0 0 0 0 0 0 0 255 0 0 255 0 0
0 0 0 254 254 254 254 254 254 254 254 254 254 254 254 254 254 254 254 254 254 255 0 0
0 0 0 254 254 254 205 205 205 205 205 205 205 205 205 205 205 205 254 254 254 0 0 0
0 0 0 254 254 254 205 205 205 254 254 254 254 254 254 205 205 205 254 254 254 0 0 0
0 0 0 254 254 254 205 205 205 254 254 254 254 254 254 205 205 205 254 254 254 0 0 0
0 0 0 254 254 254 205 205 205 205 205 205 205 205 205 205 205 205 254 254 254 0 0 0
0 0 0 254 254 254 254 254 254 254 254 254 254 254 254 254 254 254 254 254 254 0 0 0
0 0 0 0 0 0 0 0 0 0 0 0 0 0 0 0 0 0 0 0 0 0 0 0
